images/4020695.svg

<?xml version="1.0" encoding="UTF-8"?>
<svg xmlns="http://www.w3.org/2000/svg" xmlns:xlink="http://www.w3.org/1999/xlink" width="300pt" height="300pt" viewBox="0 0 300 300" version="1.1">
<defs>
<g>
<symbol overflow="visible" id="glyph0-0">
<path style="stroke:none;" d="M 0.59375 2.125 L 0.59375 -8.46875 L 6.59375 -8.46875 L 6.59375 2.125 Z M 1.265625 1.453125 L 5.9375 1.453125 L 5.9375 -7.78125 L 1.265625 -7.78125 Z M 1.265625 1.453125 "/>
</symbol>
<symbol overflow="visible" id="glyph0-1">
<path style="stroke:none;" d="M 4.734375 -7.953125 C 3.867188 -7.953125 3.179688 -7.628906 2.671875 -6.984375 C 2.171875 -6.347656 1.921875 -5.472656 1.921875 -4.359375 C 1.921875 -3.265625 2.171875 -2.394531 2.671875 -1.75 C 3.179688 -1.113281 3.867188 -0.796875 4.734375 -0.796875 C 5.585938 -0.796875 6.265625 -1.113281 6.765625 -1.75 C 7.273438 -2.394531 7.53125 -3.265625 7.53125 -4.359375 C 7.53125 -5.472656 7.273438 -6.347656 6.765625 -6.984375 C 6.265625 -7.628906 5.585938 -7.953125 4.734375 -7.953125 Z M 4.734375 -8.90625 C 5.953125 -8.90625 6.925781 -8.492188 7.65625 -7.671875 C 8.394531 -6.847656 8.765625 -5.742188 8.765625 -4.359375 C 8.765625 -2.984375 8.394531 -1.882812 7.65625 -1.0625 C 6.925781 -0.238281 5.953125 0.171875 4.734375 0.171875 C 3.503906 0.171875 2.519531 -0.238281 1.78125 -1.0625 C 1.039062 -1.882812 0.671875 -2.984375 0.671875 -4.359375 C 0.671875 -5.742188 1.039062 -6.847656 1.78125 -7.671875 C 2.519531 -8.492188 3.503906 -8.90625 4.734375 -8.90625 Z M 4.734375 -8.90625 "/>
</symbol>
</g>
</defs>
<g id="surface35113">
<rect x="0" y="0" width="300" height="300" style="fill:rgb(100%,100%,100%);fill-opacity:1;stroke:none;"/>
<path style="fill:none;stroke-width:1.2;stroke-linecap:butt;stroke-linejoin:miter;stroke:rgb(0%,0%,0%);stroke-opacity:1;stroke-miterlimit:10;" d="M 35.25 174.066406 L 44.257812 186.699219 "/>
<path style="fill:none;stroke-width:1.2;stroke-linecap:butt;stroke-linejoin:miter;stroke:rgb(100%,0%,0%);stroke-opacity:1;stroke-miterlimit:10;" d="M 44.257812 186.699219 L 53.261719 199.332031 "/>
<path style="fill:none;stroke-width:1.2;stroke-linecap:butt;stroke-linejoin:miter;stroke:rgb(100%,0%,0%);stroke-opacity:1;stroke-miterlimit:10;" d="M 53.261719 199.332031 L 68.707031 197.851562 "/>
<path style="fill:none;stroke-width:1.2;stroke-linecap:butt;stroke-linejoin:miter;stroke:rgb(0%,0%,0%);stroke-opacity:1;stroke-miterlimit:10;" d="M 68.707031 197.851562 L 84.152344 196.367188 "/>
<path style=" stroke:none;fill-rule:nonzero;fill:rgb(100%,100%,100%);fill-opacity:1;" d="M 48.261719 192.332031 L 58.261719 192.332031 L 58.261719 206.332031 L 48.261719 206.332031 Z M 48.261719 192.332031 "/>
<g style="fill:rgb(100%,0%,0%);fill-opacity:1;">
  <use xlink:href="#glyph0-1" x="48.261719" y="203.470703"/>
</g>
<path style="fill:none;stroke-width:1.2;stroke-linecap:butt;stroke-linejoin:miter;stroke:rgb(0%,0%,0%);stroke-opacity:1;stroke-miterlimit:10;" d="M 84.152344 196.367188 L 97.027344 168.136719 "/>
<path style="fill:none;stroke-width:1.2;stroke-linecap:butt;stroke-linejoin:miter;stroke:rgb(0%,0%,0%);stroke-opacity:1;stroke-miterlimit:10;" d="M 92.082031 196.574219 L 102.382812 173.988281 "/>
<path style="fill:none;stroke-width:1.2;stroke-linecap:butt;stroke-linejoin:miter;stroke:rgb(0%,0%,0%);stroke-opacity:1;stroke-miterlimit:10;" d="M 102.164062 221.636719 L 84.152344 196.367188 "/>
<path style="fill:none;stroke-width:1.2;stroke-linecap:butt;stroke-linejoin:miter;stroke:rgb(0%,0%,0%);stroke-opacity:1;stroke-miterlimit:10;" d="M 97.027344 168.136719 L 127.917969 165.167969 "/>
<path style="fill:none;stroke-width:1.2;stroke-linecap:butt;stroke-linejoin:miter;stroke:rgb(0%,0%,0%);stroke-opacity:1;stroke-miterlimit:10;" d="M 97.027344 168.136719 L 88.023438 155.5 "/>
<path style="fill:none;stroke-width:1.2;stroke-linecap:butt;stroke-linejoin:miter;stroke:rgb(100%,0%,0%);stroke-opacity:1;stroke-miterlimit:10;" d="M 88.023438 155.5 L 79.015625 142.867188 "/>
<path style="fill:none;stroke-width:1.2;stroke-linecap:butt;stroke-linejoin:miter;stroke:rgb(0%,0%,0%);stroke-opacity:1;stroke-miterlimit:10;" d="M 127.917969 165.167969 L 145.929688 190.4375 "/>
<path style="fill:none;stroke-width:1.2;stroke-linecap:butt;stroke-linejoin:miter;stroke:rgb(0%,0%,0%);stroke-opacity:1;stroke-miterlimit:10;" d="M 135.664062 163.457031 L 150.074219 183.671875 "/>
<path style="fill:none;stroke-width:1.2;stroke-linecap:butt;stroke-linejoin:miter;stroke:rgb(0%,0%,0%);stroke-opacity:1;stroke-miterlimit:10;" d="M 136.441406 135.332031 L 127.917969 165.167969 "/>
<path style="fill:none;stroke-width:1.2;stroke-linecap:butt;stroke-linejoin:miter;stroke:rgb(0%,0%,0%);stroke-opacity:1;stroke-miterlimit:10;" d="M 145.929688 190.4375 L 133.050781 218.671875 "/>
<path style="fill:none;stroke-width:1.2;stroke-linecap:butt;stroke-linejoin:miter;stroke:rgb(0%,0%,0%);stroke-opacity:1;stroke-miterlimit:10;" d="M 145.929688 190.4375 L 176.914062 192.109375 "/>
<path style="fill:none;stroke-width:1.2;stroke-linecap:butt;stroke-linejoin:miter;stroke:rgb(0%,0%,0%);stroke-opacity:1;stroke-miterlimit:10;" d="M 133.050781 218.671875 L 102.164062 221.636719 "/>
<path style="fill:none;stroke-width:1.2;stroke-linecap:butt;stroke-linejoin:miter;stroke:rgb(0%,0%,0%);stroke-opacity:1;stroke-miterlimit:10;" d="M 129.265625 211.699219 L 104.554688 214.070312 "/>
<path style="fill:none;stroke-width:1.2;stroke-linecap:butt;stroke-linejoin:miter;stroke:rgb(0%,0%,0%);stroke-opacity:1;stroke-miterlimit:10;" d="M 176.914062 192.109375 L 197.539062 168.925781 "/>
<path style="fill:none;stroke-width:1.2;stroke-linecap:butt;stroke-linejoin:miter;stroke:rgb(0%,0%,0%);stroke-opacity:1;stroke-miterlimit:10;" d="M 173.523438 184.9375 L 190.023438 166.390625 "/>
<path style="fill:none;stroke-width:1.2;stroke-linecap:butt;stroke-linejoin:miter;stroke:rgb(0%,0%,0%);stroke-opacity:1;stroke-miterlimit:10;" d="M 197.539062 168.925781 L 192.277344 138.34375 "/>
<path style="fill:none;stroke-width:1.2;stroke-linecap:butt;stroke-linejoin:miter;stroke:rgb(0%,0%,0%);stroke-opacity:1;stroke-miterlimit:10;" d="M 197.539062 168.925781 L 227.378906 177.449219 "/>
<path style="fill:none;stroke-width:1.2;stroke-linecap:butt;stroke-linejoin:miter;stroke:rgb(0%,0%,0%);stroke-opacity:1;stroke-miterlimit:10;" d="M 192.277344 138.34375 L 165.082031 123.394531 "/>
<path style="fill:none;stroke-width:1.2;stroke-linecap:butt;stroke-linejoin:miter;stroke:rgb(0%,0%,0%);stroke-opacity:1;stroke-miterlimit:10;" d="M 186.039062 143.25 L 164.285156 131.289062 "/>
<path style="fill:none;stroke-width:1.2;stroke-linecap:butt;stroke-linejoin:miter;stroke:rgb(0%,0%,0%);stroke-opacity:1;stroke-miterlimit:10;" d="M 165.082031 123.394531 L 136.441406 135.332031 "/>
<path style="fill:none;stroke-width:1.2;stroke-linecap:butt;stroke-linejoin:miter;stroke:rgb(0%,0%,0%);stroke-opacity:1;stroke-miterlimit:10;" d="M 165.082031 123.394531 L 165.917969 107.902344 "/>
<path style="fill:none;stroke-width:1.2;stroke-linecap:butt;stroke-linejoin:miter;stroke:rgb(100%,0%,0%);stroke-opacity:1;stroke-miterlimit:10;" d="M 165.917969 107.902344 L 166.753906 92.410156 "/>
<path style="fill:none;stroke-width:1.2;stroke-linecap:butt;stroke-linejoin:miter;stroke:rgb(0%,0%,0%);stroke-opacity:1;stroke-miterlimit:10;" d="M 138.867188 132.605469 L 127.277344 122.292969 "/>
<path style="fill:none;stroke-width:1.2;stroke-linecap:butt;stroke-linejoin:miter;stroke:rgb(100%,0%,0%);stroke-opacity:1;stroke-miterlimit:10;" d="M 127.277344 122.292969 L 115.683594 111.980469 "/>
<path style="fill:none;stroke-width:1.2;stroke-linecap:butt;stroke-linejoin:miter;stroke:rgb(0%,0%,0%);stroke-opacity:1;stroke-miterlimit:10;" d="M 134.015625 138.058594 L 122.421875 127.746094 "/>
<path style="fill:none;stroke-width:1.2;stroke-linecap:butt;stroke-linejoin:miter;stroke:rgb(100%,0%,0%);stroke-opacity:1;stroke-miterlimit:10;" d="M 122.421875 127.746094 L 110.832031 117.433594 "/>
<path style=" stroke:none;fill-rule:nonzero;fill:rgb(100%,100%,100%);fill-opacity:1;" d="M 103.257812 107.707031 L 113.257812 107.707031 L 113.257812 121.707031 L 103.257812 121.707031 Z M 103.257812 107.707031 "/>
<g style="fill:rgb(100%,0%,0%);fill-opacity:1;">
  <use xlink:href="#glyph0-1" x="103.257812" y="118.845703"/>
</g>
<path style="fill:none;stroke-width:1.2;stroke-linecap:butt;stroke-linejoin:miter;stroke:rgb(100%,0%,0%);stroke-opacity:1;stroke-miterlimit:10;" d="M 166.753906 92.410156 L 180.589844 85.386719 "/>
<path style="fill:none;stroke-width:1.2;stroke-linecap:butt;stroke-linejoin:miter;stroke:rgb(0%,0%,0%);stroke-opacity:1;stroke-miterlimit:10;" d="M 180.589844 85.386719 L 194.425781 78.363281 "/>
<path style=" stroke:none;fill-rule:nonzero;fill:rgb(100%,100%,100%);fill-opacity:1;" d="M 161.753906 85.410156 L 171.753906 85.410156 L 171.753906 99.410156 L 161.753906 99.410156 Z M 161.753906 85.410156 "/>
<g style="fill:rgb(100%,0%,0%);fill-opacity:1;">
  <use xlink:href="#glyph0-1" x="161.753906" y="96.548828"/>
</g>
<path style="fill:none;stroke-width:1.2;stroke-linecap:butt;stroke-linejoin:miter;stroke:rgb(0%,0%,0%);stroke-opacity:1;stroke-miterlimit:10;" d="M 229.914062 180.074219 L 241.066406 169.285156 "/>
<path style="fill:none;stroke-width:1.2;stroke-linecap:butt;stroke-linejoin:miter;stroke:rgb(100%,0%,0%);stroke-opacity:1;stroke-miterlimit:10;" d="M 241.066406 169.285156 L 252.21875 158.496094 "/>
<path style="fill:none;stroke-width:1.2;stroke-linecap:butt;stroke-linejoin:miter;stroke:rgb(0%,0%,0%);stroke-opacity:1;stroke-miterlimit:10;" d="M 224.839844 174.828125 L 235.988281 164.039062 "/>
<path style="fill:none;stroke-width:1.2;stroke-linecap:butt;stroke-linejoin:miter;stroke:rgb(100%,0%,0%);stroke-opacity:1;stroke-miterlimit:10;" d="M 235.988281 164.039062 L 247.140625 153.25 "/>
<path style="fill:none;stroke-width:1.2;stroke-linecap:butt;stroke-linejoin:miter;stroke:rgb(0%,0%,0%);stroke-opacity:1;stroke-miterlimit:10;" d="M 227.378906 177.449219 L 231.144531 192.503906 "/>
<path style="fill:none;stroke-width:1.2;stroke-linecap:butt;stroke-linejoin:miter;stroke:rgb(100%,0%,0%);stroke-opacity:1;stroke-miterlimit:10;" d="M 231.144531 192.503906 L 234.914062 207.554688 "/>
<path style=" stroke:none;fill-rule:nonzero;fill:rgb(100%,100%,100%);fill-opacity:1;" d="M 244.679688 148.875 L 254.679688 148.875 L 254.679688 162.875 L 244.679688 162.875 Z M 244.679688 148.875 "/>
<g style="fill:rgb(100%,0%,0%);fill-opacity:1;">
  <use xlink:href="#glyph0-1" x="244.679688" y="160.013672"/>
</g>
<path style="fill:none;stroke-width:1.2;stroke-linecap:butt;stroke-linejoin:miter;stroke:rgb(100%,0%,0%);stroke-opacity:1;stroke-miterlimit:10;" d="M 234.914062 207.554688 L 249.832031 211.816406 "/>
<path style="fill:none;stroke-width:1.2;stroke-linecap:butt;stroke-linejoin:miter;stroke:rgb(0%,0%,0%);stroke-opacity:1;stroke-miterlimit:10;" d="M 249.832031 211.816406 L 264.75 216.078125 "/>
<path style=" stroke:none;fill-rule:nonzero;fill:rgb(100%,100%,100%);fill-opacity:1;" d="M 229.914062 200.554688 L 239.914062 200.554688 L 239.914062 214.554688 L 229.914062 214.554688 Z M 229.914062 200.554688 "/>
<g style="fill:rgb(100%,0%,0%);fill-opacity:1;">
  <use xlink:href="#glyph0-1" x="229.914062" y="211.693359"/>
</g>
<path style="fill:none;stroke-width:1.2;stroke-linecap:butt;stroke-linejoin:miter;stroke:rgb(100%,0%,0%);stroke-opacity:1;stroke-miterlimit:10;" d="M 79.015625 142.867188 L 85.453125 128.75 "/>
<path style="fill:none;stroke-width:1.2;stroke-linecap:butt;stroke-linejoin:miter;stroke:rgb(0%,0%,0%);stroke-opacity:1;stroke-miterlimit:10;" d="M 85.453125 128.75 L 91.890625 114.632812 "/>
<path style=" stroke:none;fill-rule:nonzero;fill:rgb(100%,100%,100%);fill-opacity:1;" d="M 74.015625 135.867188 L 84.015625 135.867188 L 84.015625 149.867188 L 74.015625 149.867188 Z M 74.015625 135.867188 "/>
<g style="fill:rgb(100%,0%,0%);fill-opacity:1;">
  <use xlink:href="#glyph0-1" x="74.015625" y="147.005859"/>
</g>
</g>
</svg>

<svg xmlns="http://www.w3.org/2000/svg" xmlns:xlink="http://www.w3.org/1999/xlink" width="300pt" height="300pt" viewBox="0 0 300 300"><defs><symbol overflow="visible"><path d="M.594 2.125V-8.47h6V2.126zm.672-.672h4.671V-7.78h-4.67zm0 0"/></symbol><symbol overflow="visible" id="a"><path d="M4.734-7.953c-.867 0-1.554.324-2.062.97-.5.635-.75 1.51-.75 2.624 0 1.094.25 1.965.75 2.61.508.637 1.195.953 2.062.953.852 0 1.532-.316 2.032-.953.507-.645.765-1.516.765-2.61 0-1.113-.257-1.988-.764-2.624-.5-.645-1.18-.97-2.032-.97zm0-.953c1.22 0 2.192.414 2.922 1.234.74.824 1.11 1.93 1.11 3.313 0 1.376-.37 2.477-1.11 3.298C6.926-.24 5.953.17 4.734.17c-1.23 0-2.214-.41-2.953-1.234C1.04-1.882.673-2.984.673-4.36c0-1.382.367-2.488 1.11-3.312.738-.82 1.722-1.234 2.952-1.234zm0 0"/></symbol></defs><g><path fill="#fff" d="M0 0h300v300H0z"/><path d="M35.25 174.066l9.008 12.633" stroke-width="1.2" stroke="#000" stroke-miterlimit="10" fill="none"/><path d="M44.258 186.7l9.004 12.632M53.262 199.332l15.445-1.48" stroke-width="1.2" stroke="#f00" stroke-miterlimit="10" fill="none"/><path d="M68.707 197.852l15.445-1.485" stroke-width="1.2" stroke="#000" stroke-miterlimit="10" fill="none"/><path d="M48.262 192.332h10v14h-10zm0 0" fill="#fff"/><use xlink:href="#a" x="48.262" y="203.471" fill="#f00"/><path d="M84.152 196.367l12.875-28.23M92.082 196.574l10.3-22.586M102.164 221.637l-18.012-25.27M97.027 168.137l30.89-2.97M97.027 168.137L88.023 155.5" stroke-width="1.2" stroke="#000" stroke-miterlimit="10" fill="none"/><path d="M88.023 155.5l-9.007-12.633" stroke-width="1.2" stroke="#f00" stroke-miterlimit="10" fill="none"/><path d="M127.918 165.168l18.012 25.27M135.664 163.457l14.41 20.215M136.44 135.332l-8.522 29.836M145.93 190.438l-12.88 28.234M145.93 190.438l30.984 1.67M133.05 218.672l-30.886 2.965M129.266 211.7l-24.71 2.37M176.914 192.11l20.625-23.184M173.523 184.938l16.5-18.547M197.54 168.926l-5.263-30.582M197.54 168.926l29.84 8.523M192.277 138.344l-27.195-14.95M186.04 143.25l-21.755-11.96M165.082 123.395l-28.64 11.937M165.082 123.395l.836-15.493" stroke-width="1.2" stroke="#000" stroke-miterlimit="10" fill="none"/><path d="M165.918 107.902l.836-15.492" stroke-width="1.2" stroke="#f00" stroke-miterlimit="10" fill="none"/><path d="M138.867 132.605l-11.59-10.312" stroke-width="1.2" stroke="#000" stroke-miterlimit="10" fill="none"/><path d="M127.277 122.293l-11.593-10.313" stroke-width="1.2" stroke="#f00" stroke-miterlimit="10" fill="none"/><path d="M134.016 138.06l-11.594-10.314" stroke-width="1.2" stroke="#000" stroke-miterlimit="10" fill="none"/><path d="M122.422 127.746l-11.59-10.312" stroke-width="1.2" stroke="#f00" stroke-miterlimit="10" fill="none"/><path d="M103.258 107.707h10v14h-10zm0 0" fill="#fff"/><use xlink:href="#a" x="103.258" y="118.846" fill="#f00"/><path d="M166.754 92.41l13.836-7.023" stroke-width="1.2" stroke="#f00" stroke-miterlimit="10" fill="none"/><path d="M180.59 85.387l13.836-7.024" stroke-width="1.2" stroke="#000" stroke-miterlimit="10" fill="none"/><path d="M161.754 85.41h10v14h-10zm0 0" fill="#fff"/><use xlink:href="#a" x="161.754" y="96.549" fill="#f00"/><path d="M229.914 180.074l11.152-10.79" stroke-width="1.2" stroke="#000" stroke-miterlimit="10" fill="none"/><path d="M241.066 169.285l11.153-10.79" stroke-width="1.2" stroke="#f00" stroke-miterlimit="10" fill="none"/><path d="M224.84 174.828l11.148-10.79" stroke-width="1.2" stroke="#000" stroke-miterlimit="10" fill="none"/><path d="M235.988 164.04l11.153-10.79" stroke-width="1.2" stroke="#f00" stroke-miterlimit="10" fill="none"/><path d="M227.38 177.45l3.765 15.054" stroke-width="1.2" stroke="#000" stroke-miterlimit="10" fill="none"/><path d="M231.145 192.504l3.77 15.05" stroke-width="1.2" stroke="#f00" stroke-miterlimit="10" fill="none"/><path d="M244.68 148.875h10v14h-10zm0 0" fill="#fff"/><use xlink:href="#a" x="244.68" y="160.014" fill="#f00"/><path d="M234.914 207.555l14.918 4.26" stroke-width="1.2" stroke="#f00" stroke-miterlimit="10" fill="none"/><path d="M249.832 211.816l14.918 4.262" stroke-width="1.2" stroke="#000" stroke-miterlimit="10" fill="none"/><path d="M229.914 200.555h10v14h-10zm0 0" fill="#fff"/><use xlink:href="#a" x="229.914" y="211.693" fill="#f00"/><path d="M79.016 142.867l6.437-14.117" stroke-width="1.2" stroke="#f00" stroke-miterlimit="10" fill="none"/><path d="M85.453 128.75l6.438-14.117" stroke-width="1.2" stroke="#000" stroke-miterlimit="10" fill="none"/><path d="M74.016 135.867h10v14h-10zm0 0" fill="#fff"/><use xlink:href="#a" x="74.016" y="147.006" fill="#f00"/></g></svg>
